packages/heroicons/src/prism/printer.svg

<!-- Generated by IcoMoon.io -->
<svg version="1.1" xmlns="http://www.w3.org/2000/svg" width="16" height="16" viewBox="0 0 16 16">
<title>printer</title>
<path fill="#4a4a4a" d="M4 1h8v2h-8v-2zM15 4h-14c-0.55 0-1 0.45-1 1v5c0 0.55 0.45 1 1 1h3v4h8v-4h3c0.55 0 1-0.45 1-1v-5c0-0.55-0.45-1-1-1zM2 7c-0.552 0-1-0.448-1-1s0.448-1 1-1 1 0.448 1 1-0.448 1-1 1zM11 14h-6v-5h6v5z"></path>
</svg>

<svg xmlns="http://www.w3.org/2000/svg" aria-hidden="true" fill="currentColor" viewBox="0 0 16 16">
  <path d="M4 1h8v2H4V1zm11 3H1c-.55 0-1 .45-1 1v5c0 .55.45 1 1 1h3v4h8v-4h3c.55 0 1-.45 1-1V5c0-.55-.45-1-1-1zM2 7a1 1 0 110-2 1 1 0 010 2zm9 7H5V9h6v5z"/>
</svg>
